outputs/icons/general/glossary_round.svg

<svg xmlns="http://www.w3.org/2000/svg" width="1200" height="1200" fill="none"><path fill="#000" d="M325 800q58.75 0 114.375 13.125Q495.002 826.25 550 852.5V360q-51.248-30-108.75-45-57.5-15-116.25-15-45 0-89.375 8.75T150 335v495q43.75-15 86.875-22.5T325 800m325 52.5q54.997-26.25 110.625-39.375T875 800q45 0 88.125 7.5T1050 830V335q-41.249-17.5-85.625-26.25T875 300q-58.747 0-116.25 15T650 360zm-42.18 141.435a12.93 12.93 0 0 1-15.64 0Q535.466 950.796 470 926.25 400 900 325 900q-52.5.001-103.125 13.75c-33.75 9.165-66.041 22.085-96.875 38.75q-26.25 13.749-50.625-1.25Q50 936.249 50 907.5V305q0-13.749 6.875-26.25Q63.751 266.25 77.5 260q57.5-30 120-45T325 200q72.5 0 141.875 18.75T600 275q63.75-37.5 133.125-56.25Q802.499 200 875 200q65.003 0 127.5 15t120 45q13.747 6.25 20.625 18.75 6.876 12.501 6.875 26.25v602.5q0 28.749-24.375 43.75-24.375 14.999-50.625 1.25c-30.835-16.665-63.125-29.585-96.875-38.75Q927.5 900.001 875 900q-75.001 0-145 26.25-65.466 24.546-122.18 67.685"/></svg>

<svg width="1200" height="1200" viewBox="0 0 1200 1200" fill="none" xmlns="http://www.w3.org/2000/svg"><path d="M325 800C364.167 800 402.292 804.375 439.375 813.125C476.459 821.875 513.335 835 550 852.5V360C515.835 340 479.584 325 441.25 315C402.916 305 364.167 300 325 300C295 300 265.209 302.916 235.625 308.75C206.041 314.584 177.5 323.333 150 335V830C179.167 820 208.125 812.5 236.875 807.5C265.625 802.5 295 800 325 800ZM650 852.5C686.665 835 723.54 821.875 760.625 813.125C797.71 804.375 835.835 800 875 800C905 800 934.375 802.5 963.125 807.5C991.875 812.5 1020.835 820 1050 830V335C1022.5 323.333 993.96 314.584 964.375 308.75C934.79 302.916 905 300 875 300C835.835 300 797.085 305 758.75 315C720.415 325 684.165 340 650 360V852.5ZM607.82 993.935C603.205 997.445 596.795 997.445 592.18 993.935C554.37 965.175 513.645 942.615 470 926.25C423.334 908.75 375 900 325 900C290 900 255.625 904.585 221.875 913.75C188.125 922.915 155.834 935.835 125 952.5C107.5 961.665 90.625 961.25 74.375 951.25C58.125 941.25 50 926.665 50 907.5V305C50 295.834 52.291 287.084 56.875 278.75C61.459 270.417 68.334 264.167 77.5 260C115.833 240 155.834 225 197.5 215C239.167 205 281.666 200 325 200C373.333 200 420.625 206.25 466.875 218.75C513.125 231.25 557.5 250 600 275C642.5 250 686.875 231.25 733.125 218.75C779.375 206.25 826.665 200 875 200C918.335 200 960.835 205 1002.5 215C1044.165 225 1084.165 240 1122.5 260C1131.665 264.167 1138.54 270.417 1143.125 278.75C1147.71 287.084 1150 295.834 1150 305V907.5C1150 926.665 1141.875 941.25 1125.625 951.25C1109.375 961.25 1092.5 961.665 1075 952.5C1044.165 935.835 1011.875 922.915 978.125 913.75C944.375 904.585 910 900 875 900C825 900 776.665 908.75 730 926.25C686.355 942.615 645.63 965.175 607.82 993.935Z" fill="black"/></svg>
